!!!!SEGMENT: pl-sa--300-a-vii-60--001_lechleitner-ferdinand-simon--psalmi-de-profundis-clamavi.krn
!!!cenid: 17xx:419
!!!COM: Lechleitner, Ferdinand Simon
!!!COM-rismid: pe30001903
!!!CDT: ~1700-~1800
!!!CNT:
!!!OPR: Psalmi
!!!OTL: De profundis clamavi
!!!OMV: 001
!!!PDT:
!!!AGN: Sacred
!!!SMS-siglum: PL-SA
!!!SMS-shelfmark: 300/A VII 60
!!!SMS-shelfwork: 001-001 M
!!!NIFC-rismid: 1001039710
!!!system-decoration: [(s1,s2,s3,s4)][(s5,s6,s7)]
**kern	**fba	**kern	**kern	**kern	**text	**kern	**text	**kern	**text	**kern	**text
*part7	*part7	*part6	*part5	*part4	*part4	*part3	*part3	*part2	*part2	*part1	*part1
*staff7	*staff7	*staff6	*staff5	*staff4	*staff4	*staff3	*staff3	*staff2	*staff2	*staff1	*staff1
*I"Partimento Generale	*	*I"Violino 2do	*I"Violino 1mo	*I"Baſso.	*	*I"Tenore	*	*I"Alto	*	*I"Canto	*
*I'b.c.	*	*I'vn 2	*I'vn 1	*I'B	*	*I'T	*	*I'A	*	*I'S	*
*clefF4	*	*clefG2	*clefG2	*clefF4	*	*clefC4	*	*clefC3	*	*clefC1	*
*k[b-]	*	*k[b-]	*k[b-]	*k[b-]	*	*k[b-]	*	*k[b-]	*	*k[b-]	*
*F:	*	*F:	*F:	*F:	*	*F:	*	*F:	*	*F:	*
*M3/2	*	*M3/2	*M3/2	*M3/2	*	*M3/2	*	*M3/2	*	*M3/2	*
=1	=1	=1	=1	=1	=1	=1	=1	=1	=1	=1	=1
*2\right	*	*2\right	*2\right	*2\right	*	*2\right	*	*2\right	*	*2\right	*
!LO:TX:a:t=P:w źródle brak nazwy partii na górze strony; na stronie tytułowej "Partimento Generale":problem	!	!	!	!	!	!	!	!	!	!	!
!LO:TX:a:t=P:znak przykluczowy b- zapisany w dwóch oktawach:problem	!	!	!	!	!	!	!	!	!	!	!
!LO:SIC:o=D:v:t='D' znajduje się przed kluczem i oznaczeniem metrum	!	!	!	!	!	!	!	!	!	!	!
!LO:TX:b:Bi:t=eprofundis:rj	!	!LO:TX:b:Bi:t=Deprofundis:dur=9h:ext=s:problem:text with extention lines	!LO:TX:b:Bi:t=Deprofundis:dur=9h:ext=s:problem:text with extention lines	!	!	!	!	!	!	!LO:TX:a:Bi:t=Deprofundis:rj	!
!LO:TX:a:Bi:t=Grave ſolo	!	!	!LO:TX:a:Bi:t=Grave ſolo:dur=9h:ext=s:problem:text with extention lines	!	!	!	!	!	!	!	!
!	!	!LO:SIC:o=1:v:t='1' znajduje się przed kluczem i oznaczeniem metrum	!	!	!	!	!	!LO:SIC:o=1:v:t='1' znajduje się przed kluczem i oznaczeniem metrum	!	!	!
!	!	!LO:N:vis=0	!	!	!	!LO:N:vis=00	!	!LO:N:vis=00	!	!LO:N:vis=00	!
1.F	.	0.r	1.r	2rGG	.	00.r	.	00.r	.	00.r	.
!	!	!	!	!LO:TX:a:t=P:półnuty z caudami w górę mają caudy na środku nuty:problem	!	!	!	!	!	!	!
!	!	!	!	!LO:TX:a:Bi:t=ſolo	!	!	!	!	!	!	!
.	.	.	.	2FF/	De	.	.	.	.	.	.
.	.	.	.	2FF/	pro-	.	.	.	.	.	.
=2	=2	=2	=2-	=2	=2	=2	=2	=2	=2	=2	=2
1.F	.	.	2r	2AA/	-fun-	.	.	.	.	.	.
.	.	.	2f/	2AA/	-dis	.	.	.	.	.	.
.	.	.	2f/	2FF/	pro-	.	.	.	.	.	.
=3	=3	=3-	=3	=3	=3	=3	=3	=3	=3	=3	=3
1.F	.	2re	2a/	2C/	-fun-	.	.	.	.	.	.
!	!	!LO:TX:a:t=P:nuty z caudami w górę mają caudy na środku nuty:problem	!	!	!	!	!	!	!	!	!
.	.	2c/	2a/	2C/	-dis	.	.	.	.	.	.
.	.	2f/	2a/	4C/	de	.	.	.	.	.	.
.	.	.	.	4D/	pro-	.	.	.	.	.	.
=4	=4	=4	=4	=4	=4	=4	=4	=4	=4	=4	=4
2rBB	.	2e/	2g/	2E\	-fu(n)-	.	.	.	.	.	.
2C/	.	2e/	2g/	2E\	-dis	.	.	.	.	.	.
2C/	.	2e/	2g/	2C/	pro-	.	.	.	.	.	.
=5	=5	=5	=5	=5	=5	=5	=5	=5	=5	=5	=5
!	!	!	!	!	!	!LO:N:vis=00	!	!LO:N:vis=00	!	!LO:N:vis=00	!
2F\	.	2f/	2a/	2F\	-fu(n)-	00.r	.	00.r	.	00.r	.
2F\	.	2f/	2a/	2F\	-dis	.	.	.	.	.	.
2FF/	.	2f/	2a/	2F\	Cla-	.	.	.	.	.	.
=6	=6	=6	=6	=6	=6	=6	=6	=6	=6	=6	=6
2C/	.	4e/	4g/	2c\	-ma-	.	.	.	.	.	.
.	.	4d/	4f/	.	.	.	.	.	.	.	.
2C/	.	4e/	4g/	2c\	-vi	.	.	.	.	.	.
.	.	4c/	4e/	.	.	.	.	.	.	.	.
2C/	.	4d/	4f/	2c\	Cla-	.	.	.	.	.	.
.	.	4e/	4g/	.	.	.	.	.	.	.	.
=7	=7	=7	=7	=7	=7	=7	=7	=7	=7	=7	=7
1F	.	2f/	4a/	4c\	-ma-	.	.	.	.	.	.
.	.	.	4b-/	4d\	.	.	.	.	.	.	.
.	.	2f/	4a/	4c\	.	.	.	.	.	.	.
.	.	.	4g/	4B-\	.	.	.	.	.	.	.
2F\	.	2f/	4f/	4A\	.	.	.	.	.	.	.
.	.	.	4e/	4G\	.	.	.	.	.	.	.
!	!	!	!	!LO:LB:g=original	!	!	!	!	!	!	!
=8	=8	=8	=8	=8	=8	=8	=8	=8	=8	=8	=8
4D\	.	1f	4f/	2F\	.	.	.	.	.	.	.
4E\	.	.	4g/	.	.	.	.	.	.	.	.
4D/	.	.	4f/	2F\	-vi	.	.	.	.	.	.
4C/	.	.	4e/	.	.	.	.	.	.	.	.
4BB-/	.	2f/	4d/	2d\	Cla-	.	.	.	.	.	.
4AA/	.	.	4c/	.	.	.	.	.	.	.	.
=9	=9	=9	=9	=9	=9	=9	=9	=9	=9	=9	=9
!	!	!	!	!	!	!LO:N:vis=00	!	!LO:N:vis=00	!	!LO:N:vis=00	!
1GG	.	2g/	2B-/	4d\	-ma-	00.r	.	00.r	.	00.r	.
.	.	.	.	4e-X\	.	.	.	.	.	.	.
.	.	2g/	2d/	4d\	.	.	.	.	.	.	.
.	.	.	.	4c\	.	.	.	.	.	.	.
2BB-/	6	2d/	4g/	4B-\	.	.	.	.	.	.	.
.	5	.	4f/	4A\	.	.	.	.	.	.	.
!LO:LB:g=original	!	!	!	!	!	!	!	!	!	!	!
=10	=10	=10	=10	=10	=10	=10	=10	=10	=10	=10	=10
1.C	.	2c/	2e/	4G\	.	.	.	.	.	.	.
.	.	.	.	4A\	.	.	.	.	.	.	.
.	.	2c/	2e/	4G\	.	.	.	.	.	.	.
.	.	.	.	4F\	.	.	.	.	.	.	.
.	.	2c/	2e/	4E\	.	.	.	.	.	.	.
.	.	.	.	4D\	.	.	.	.	.	.	.
!	!	!	!LO:LB:g=original	!	!	!	!	!	!	!	!
=11	=11	=11	=11	=11	=11	=11	=11	=11	=11	=11	=11
2C/	.	2c/	2e/	2C/	.	.	.	.	.	.	.
2BB-/	.	2c/	2e/	2C,</	-vi	.	.	.	.	.	.
2F\	.	2a/	2cc\	2F\	ad	.	.	.	.	.	.
=12	=12	=12	=12	=12	=12	=12	=12	=12	=12	=12	=12
2E\	6	2g/	2cc\	2E\	te	.	.	.	.	.	.
2D/	7	2.f/	2.cc\	2.D/	Do-	.	.	.	.	.	.
2G\	n	.	.	.	.	.	.	.	.	.	.
.	.	4f/	4bn/	4G\	-mi-	.	.	.	.	.	.
!	!	!LO:LB:g=original	!	!	!	!	!	!	!	!	!
=13	=13	=13	=13	=13	=13	=13	=13	=13	=13	=13	=13
!	!	!	!	!	!	!LO:N:vis=0	!	!LO:N:vis=00	!	!LO:N:vis=00	!
2C/	.	2e/	2cc\	2C/	-ne	0.r	.	00.r	.	00.r	.
2.F\	.	2.a/	2.cc\	2.F\	Do-	.	.	.	.	.	.
4F\	.	4a/	4cc\	4F\	-mi-	.	.	.	.	.	.
!	!	!	!	!LO:LB:g=original	!	!	!	!	!	!	!
=14	=14	=14	=14	=14	=14	=14	=14	=14	=14	=14	=14
1B-	.	1f	1dd	1B-	-ne	.	.	.	.	.	.
2G\	.	2b-\	2dd\	2G\	e-	.	.	.	.	.	.
=15	=15	=15	=15	=15	=15	=15-	=15-	=15	=15	=15	=15
!	!	!	!	!	!	!LO:TX:a:Bi:t=ſolo	!	!	!	!	!
2.c\	.	2.g/	2.ee\	2.c\	-xau-	2.c\	Fi-	.	.	.	.
4B-\	.	4g/	4ee\	4B-\	-di	4c\	-ant	.	.	.	.
2A\	.	2a/	[>2ff\	2A\	vo-	2c\	au-	.	.	.	.
=16	=16	=16	=16	=16	=16	=16	=16	=16	=16	=16	=16
*	*	*	*cue	*	*	*	*	*	*	*	*
!	!	!	!LO:N:vis=x	!	!	!	!	!	!	!	!
2B-\	6	2dd\	4ff\]	2B-\	-cem	2d\	-res	.	.	.	.
*	*	*	*Xcue	*	*	*	*	*	*	*	*
.	5	.	4gg\	.	.	.	.	.	.	.	.
2c\	.	2cc\	2.gg\	2c\	me-	2.e\	tu-	.	.	.	.
2C/	.	2b-\	.	2C/	.	.	.	.	.	.	.
.	.	.	4ff\	.	.	4e\	-ae	.	.	.	.
=17	=17	=17	=17	=17	=17	=17	=17	=17	=17	=17	=17
!	!	!	!	!	!	!	!	!LO:N:vis=00	!	!LO:N:vis=00	!
2F\	.	2a/	2ff\	2F\	-am	2.f\	in-	00.r	.	00.r	.
!	!	!	!LO:TX:b:B:t=T	!	!	!	!	!	!	!	!
2D\	7	2r	2r	2r	.	.	.	.	.	.	.
.	.	.	.	.	.	4c\	-ten-	.	.	.	.
2G\	n	2r	2r	2r	.	2Bn\	-den-	.	.	.	.
=18	=18	=18	=18-	=18	=18	=18	=18	=18	=18	=18	=18
!	!	!LO:N:vis=0	!LO:N:vis=0	!LO:N:vis=0	!	!	!	!	!	!	!
2C/	.	0.r	0.r	0.r	.	2.c\	-tes	.	.	.	.
2E\	.	.	.	.	.	.	.	.	.	.	.
.	.	.	.	.	.	4c\	in	.	.	.	.
2C/	.	.	.	.	.	4G/	Vo-	.	.	.	.
.	.	.	.	.	.	4c\	-cem	.	.	.	.
=19	=19	=19	=19	=19	=19	=19	=19	=19	=19	=19	=19
4r	.	.	.	.	.	2.B-\	de-	.	.	.	.
4G\	.	.	.	.	.	.	.	.	.	.	.
4D\	.	.	.	.	.	.	.	.	.	.	.
4G\	.	.	.	.	.	4B-\	-pre-	.	.	.	.
!LO:LB:g=original	!	!	!	!	!	!	!	!	!	!	!
2F\	.	.	.	.	.	4A\	-ca-	.	.	.	.
.	.	.	.	.	.	4A\	-ti-	.	.	.	.
!	!	!	!	!	!	!LO:LB:g=original	!	!	!	!	!
=20	=20	=20	=20	=20	=20	=20	=20	=20	=20	=20	=20
2BB-/	6	1.r	1.r	1.r	.	4G/	-o-	.	.	.	.
.	4	.	.	.	.	4G/	-nis	.	.	.	.
!	!	!	!	!	!	!LO:TX:a:t=P:półnuty z caudami w górę mają caudy na środku nuty:problem	!	!	!	!	!
2C/	5	.	.	.	.	(>2.G/	me-	.	.	.	.
.	3	.	.	.	.	.	.	.	.	.	.
2CC/	.	.	.	.	.	.	.	.	.	.	.
.	.	.	.	.	.	4F/)	.	.	.	.	.
=21	=21	=21-	=21-	=21-	=21-	=21	=21	=21-	=21-	=21-	=21-
2FF/	.	2r	2r	2r	.	2F/	-ae	2r	.	2rb	.
!	!	!LO:SIC:s=2dd:v	!	!	!	!	!	!	!	!	!
2F\	5	2cc\	2aa\	2F\	ſi	2A\	ſi	2f\	ſi	2dd\	ſi
!LO:TX:b:Bi:t=Tutti	!	!	!	!	!	!	!	!	!	!	!
!	!	!LO:SIC:s=2ee:v	!	!	!	!	!	!	!	!	!
2F\	6	2dd\	2aa\	2F\	i-	2A\	i-	2f\	i-	2ee\	i-
=22	=22	=22	=22	=22	=22	=22	=22	=22	=22	=22	=22
2.E\	7_	2.dd\	2.gg\	2.E\	-ni-	2.B-\	-ni-	2.g\	-ni-	2.dd\	-ni-
4E\	.	4dd\	4gg\	4E\	-qui-	4B-\	-qui-	4g\	-qui-	4dd\	-qui-
2E\	6\	2cc#X\	2gg\	2E\	-ta-	2A\	-ta-	2g\	-ta-	2cc#X\	-ta-
=23	=23	=23	=23	=23	=23	=23	=23	=23	=23	=23	=23
2D\	n	2dd\	2aa\	2D\	-tes	2A/	-tes	2f\	-tes	2dd\	-tes
2D\	6\	2a/	2ff\	2D\	ob-	2A/	ob-	2f\	ob-	2dd\	ob-
2E\	.	2ee\	2gg\	2E\	-ſer-	2G/	-ſer-	2e\	-ser-	2cc#X\	-ſer-
!	!	!	!	!LO:SIC:custos F:v	!	!	!	!	!	!	!
!	!	!	!	!LO:LB:g=original	!	!	!	!	!	!	!
=24	=24	=24	=24	=24	=24	=24	=24	=24	=24	=24	=24
2.F\	6 x	2.dd\	2.ff\	2.F\	-va-	2.A\	-va-	2.a\	-Va-	2.dd\	-va-
4F\	.	4dd\	4ff\	4F\	-ve-	4A\	-ve-	4a\	-ve-	4dd\	-ve-
!	!	!	!	!	!	!	!	!	!	!LO:SIC:l:s=-ris:v	!
2G\	6 5	2gg\	2bb-\	2G\	-ris	2B-\	-ris	2g\	-ris	2ee\	-rit
!	!	!LO:LB:g=original	!LO:LB:g=original	!	!	!	!	!	!	!	!
=25	=25	=25	=25	=25	=25	=25	=25	=25	=25	=25	=25
1A	.	2cc#X\	2.ee\	2.A\	D(o-	2.A\	Do-	2.e\	Do-	2.cc#X\	Do-
.	.	2cc#\	.	.	.	.	.	.	.	.	.
.	.	.	4ee\	4A\	-mi)-	4A\	-mi-	4e\	-mi-	4cc#\	-mi-
!	!	!	!	!	!	!LO:SIC:s=2c#:v	!	!	!	!	!
2A\	.	2cc#\	2ee\	2A\	-ne	2d\	-ne	2e\	-ne	2cc#\	-ne
=26	=26	=26	=26	=26	=26	=26	=26	=26	=26	=26	=26
2.F\	6\	2.dd\	2.aa\	2.F\	Do-	2.A\	D(o-	2.f\	D(o-	2.dd\	D(o-
4E\	6\	4ee\	4gg\	4E\	-mi-	4A\	-mi)-	4g\	-mi)-	4ee\	-mi)-
2D\	n	2ff\	2ff\	2D\	-ne	2d\	-ne	2a\	-ne	2ff\	-ne
!	!	!	!	!	!	!LO:LB:g=original	!	!LO:LB:g=original	!	!	!
=27	=27	=27	=27	=27	=27	=27	=27	=27	=27	=27	=27
2B-\	.	2dd\	2bb-\	2B-\	quis	2d\	quis	2b-\	quis	2dd\	quis
2G\	5	2gg\	2bb-\	2G\	ſus-	2d\	ſus-	2b-\	ſus-	2dd\	ſus-
2G\	6	2gg\	2bb-\	2G\	-ti-	2B-\	-ti-	2g\	-ti-	2ee\	-ti-
!	!	!	!	!	!	!	!	!	!	!LO:LB:g=original	!
=28	=28	=28	=28	=28	=28	=28	=28	=28	=28	=28	=28
1.A	#	4cc#X\	4ee\	1A	-ne-	1A	-ne-	1e	-ne-	1cc#X	-ne-
.	.	4dd\	4ff\	.	.	.	.	.	.	.	.
.	.	4ee\	4gg\	.	.	.	.	.	.	.	.
.	.	4cc#Xi\	4ee\	.	.	.	.	.	.	.	.
.	.	4dd\	4ff\	2A\	-bit	2A/	-bit	2e\	-bit	2cc#\	-bit
.	.	4ee\	4gg\	.	.	.	.	.	.	.	.
=29	=29	=29	=29	=29	=29	=29	=29	=29	=29	=29	=29
1F	.	1ff	1aa	1F	qui-	1c	qui-	1a	qui-	1ccn	qui-
2F\	.	2ff\	2aa\	2F\	-a	2c\	-a	2a\	-a	2cc\	-a
!LO:LB:g=original	!	!	!	!	!	!	!	!	!	!	!
=30	=30	=30	=30	=30	=30	=30	=30	=30	=30	=30	=30
2c\	.	2ee\	2ee\	2c\	a-	2c\	a-	2g\	a-	2ee\	a-
2c\	.	2cc\	2ee\	2c\	-pud	2c\	-pud	2g\	-pud	2ee\	-pud
2c\	.	2cc\	2ee\	2c\	te	2c\	te	2g\	te	2ee\	te
=31	=31	=31	=31	=31	=31	=31	=31	=31	=31	=31	=31
2A\	6_	2cc\	2ff\	2A\	pro-	2c\	pro-	2f\	pro-	2ff\	pro-
2A\	.	2cc\	2ff\	2A\	-pi-	2c\	-pi-	2f\	-pi-	2ff\	-pi-
2A\	X	2cc\	2ff\	2A\	-ti-	2c\	-ti-	2a\	-ti-	2ff\	-ti-
!	!	!	!	!LO:LB:g=original	!	!	!	!	!	!	!
=32	=32	=32	=32	=32	=32	=32	=32	=32	=32	=32	=32
2.Bn\	.	2.dd\	2.gg\	2.Bn\	-a-	2.Bn\	-a-	2.g\	-a-	2.dd\	-a-
4B\	.	4dd\	4gg\	4B\	-ti-	4B\	-ti-	4g\	-ti-	4dd\	-ti-
2B\	.	2dd\	2gg\	2B\	-o	2d\	-o	2g\	-o	2dd\	-o
=33	=33	=33	=33	=33	=33	=33	=33	=33	=33	=33	=33
2c\	.	1ee	1gg	1c	eſt	1c	eſt	1g	eſt	1ee	eſt
2C/	.	.	.	.	.	.	.	.	.	.	.
2c\	.	2rdd	2rgg	2c\	et	2c\	et	2g\	et	2ee\	et
!	!	!LO:LB:g=original	!	!	!	!	!	!	!	!	!
=34	=34	=34	=34	=34	=34	=34	=34	=34	=34	=34	=34
2.A\	6	2rdd	2r	2.A\	pro-	2.c\	pro-	2.a\	(pro)-	2.ff\	(pro)-
.	.	2rdd	2r	.	.	.	.	.	.	.	.
!	!	!	!	!	!	!	!	!LO:SIC:s=4b-:v	!	!	!
4G\	.	.	.	4G\	-pter	4B-\	-pter	4a\	-pter	4ee\	-pter
2A\	.	2ff\	2ccc\	2A\	le-	2c\	le-	2a\	le-	2ff\	le-
!	!	!	!	!	!	!LO:LB:g=original	!	!	!	!	!
=35	=35	=35	=35	=35	=35	=35	=35	=35	=35	=35	=35
1F	.	2.ff\	2.aa\	1F	-ge(m)	1c	-gem	1a	-ge(m)	1ff	-ge(m)
.	.	4ee\	4gg\	.	.	.	.	.	.	.	.
*	*	*	*	*	*	*	*	*	*	*	*ij
!	!	!	!	!LO:SIC:s=2d:v	!	!	!	!	!	!	!
2d\	.	2ff\	2aa\	2c\	pro-	2d\	et	2a\	le-	2ff\	le-
!	!	!	!	!	!	!	!	!LO:LB:g=original	!	!	!
=36	=36	=36	=36	=36	=36	=36	=36	=36	=36	=36	=36
2.B-\	6	2.dd\	2.bb-\	2.B-\	-pter	2.d\	(pro)-	2.b-\	-gem	2.gg\	-ge(m)
*	*	*	*	*	*	*	*	*	*ij	*	*Xij
!	!	!LO:SIC:s=4ff:v	!	!	!	!	!	!LO:SIC:s=4a:v	!	!LO:SIC:s=4ff:v	!
4A\	.	4ee\	4ff\	4A\	le-	4c\	-pter	4b-\	le-	4ee\	tu-
2B-\	.	2gg\	2dd\	2B-\	-ge(m)	2d\	le-	2b-\	-gem	2gg\	-am
*	*	*	*	*	*	*	*	*	*Xij	*	*
!	!	!	!LO:LB:g=original	!	!	!	!	!	!	!	!
=37	=37	=37	=37	=37	=37	=37	=37	=37	=37	=37	=37
2G\	.	2gg\	2dd\	2G\	tu-	2d\	-gem	2b-\	tu-	2gg\	ſuſ-
2c\	.	2ee\	2ee\	2c\	-a(m)	2c\	ſus-	2g\	-am	2ee\	-ti-
!	!	!	!	!	!	!	!	!	!	!LO:LB:g=original	!
2B-\	4 2	2ee\	2ee\	2B-\	ſus-	2c\	-ti-	2g\	ſus-	2ee\	-nu-
=38	=38	=38	=38	=38	=38	=38	=38	=38	=38	=38	=38
!	!	!LO:N:vis=2.	!	!	!	!	!	!	!	!	!
2A\	.	2cc\	2.ff\	2A\	-ti-	2c\	-nu-	2f\	-ti-	2ff\	-i
2.A\	.	2.cc\	.	2.A\	-nu-	2c\	-i-	2.f\	-nu-	2.ff\	te
.	.	.	4ff\	.	.	.	.	.	.	.	.
.	.	.	2bb-\	.	.	4B-\	-te	.	.	.	.
4G\	.	4ee\	.	4G\	-i-	4B-\	.	4g\	-i	4ee\	Do-
=39	=39	=39	=39	=39	=39	=39	=39	=39	=39	=39	=39
4F\	.	4ff\	4aa\	4F\	-te	4A\	.	4a\	te	4ff\	-mi-
4B-\	.	4dd\	4bb-\	4B-\	.	4d\	.	4g\	.	4dd\	-ne
*	*	*	*	*	*	*	*	*	*	*	*ij
2c\	.	2.ee\	2.gg\	2c\	Do-	2.c\	Do-	2.g\	Do-	2.ee\	Do-
!	!	!	!	!LO:LB:g=original	!	!	!	!	!	!	!
2C/	4	.	.	2C/	-mi-	.	.	.	.	.	.
.	3	4ff\	4aa\	.	.	4c\	-mi-	4f\	-mi-	4ff\	-mi-
!LO:LB:g=original	!	!	!	!	!	!	!	!	!	!	!
=40	=40	=40	=40	=40	=40	=40	=40	=40	=40	=40	=40
!LO:TX:b:Bi:t=ſolo	!	!	!LO:TX:b:B:t=C	!	!	!	!	!	!	!	!
2F\	.	2ff\	2aa\	2F\	-ne	2c\	-ne	2f\	-ne	2ff\	-ne
*	*	*	*	*	*	*	*	*	*	*	*Xij
2G\	.	2r	2r	2r	.	2r	.	2r	.	2ree	.
!	!	!	!	!	!	!	!	!	!	!LO:SIC:o=solo:v:t='solo' dopisane innym atramentem	!
2A\	.	2r	2r	2r	.	2r	.	2r	.	2ff\	ſus-
=41	=41	=41-	=41-	=41-	=41-	=41	=41	=41	=41	=41	=41
!	!	!	!LO:TX:b:B:t=A	!	!	!	!	!	!	!	!
!	!	!LO:N:vis=00	!LO:N:vis=00	!LO:N:vis=00	!	!LO:N:vis=00	!	!LO:N:vis=0	!	!	!
2B-\	.	00.r	00.r	00.r	.	00.r	.	0.r	.	2dd\	-ti-
2G\	6	.	.	.	.	.	.	.	.	4dd\	-nu-
.	.	.	.	.	.	.	.	.	.	4ee-X\	-it
2E\	5	.	.	.	.	.	.	.	.	4cc\	a-
.	.	.	.	.	.	.	.	.	.	8cc\	-ni-
.	.	.	.	.	.	.	.	.	.	8b-\	-ma
=42	=42	=42	=42	=42	=42	=42	=42	=42	=42	=42	=42
2F\	.	.	.	.	.	.	.	.	.	2a\	me-
2D/	.	.	.	.	.	.	.	.	.	4a\	-a
.	.	.	.	.	.	.	.	.	.	4g\	in
2BBn/	6	.	.	.	.	.	.	.	.	4f/	Ver-
.	5	.	.	.	.	.	.	.	.	4g/	-bo
=43	=43	=43	=43	=43	=43	=43	=43	=43	=43	=43	=43
2C/	.	.	.	.	.	.	.	1.r	.	2e/	e-
!	!	!	!	!	!	!	!	!	!	!LO:SIC:s=2g:v	!
2E\	.	.	.	.	.	.	.	.	.	2f/	-ius
2C/	.	.	.	.	.	.	.	.	.	2cc\	ſpe-
=44	=44	=44	=44	=44	=44	=44	=44	=44-	=44-	=44	=44
2F\	.	.	.	.	.	.	.	2r	.	2a\	-ra-
!	!	!	!	!	!	!	!	!	!	!LO:LB:g=original	!
!	!	!	!	!	!	!	!	!LO:SIC:o=solo:v:t='solo' dopisane innym atramentem	!	!	!
2A\	.	.	.	.	.	.	.	2f\	A	2f/	-vit
2F\	.	.	.	.	.	.	.	2a\	Cu-	2r	.
=45	=45	=45	=45	=45	=45	=45	=45	=45	=45	=45	=45
!	!	!	!	!	!	!	!	!	!	!LO:TX:a:t=P:w źródle skreślone przez skryptora słowa 'mea in':problem	!
!	!	!LO:N:vis=00	!LO:N:vis=00	!LO:N:vis=00	!	!LO:N:vis=0	!	!	!	!	!
2B-\	.	00.r	00.r	00.r	.	0.r	.	2b-\	-ſto-	2.dd\	a-
2A\	.	.	.	.	.	.	.	4b-\	-di-	.	.
.	.	.	.	.	.	.	.	4b-\	-a	4dd\	-ni-
2G\	.	.	.	.	.	.	.	4b-\	ma-	2gg\	-ma
.	.	.	.	.	.	.	.	4a\	-tu-	.	.
!	!	!	!	!	!	!	!	!LO:LB:g=original	!	!	!
=46	=46	=46	=46	=46	=46	=46	=46	=46	=46	=46	=46
2c\	.	.	.	.	.	.	.	2g\	-ti-	4ee\	me-
.	.	.	.	.	.	.	.	.	.	8ee\	-a
.	.	.	.	.	.	.	.	.	.	8dd\	in
2G\	.	.	.	.	.	.	.	2g\	-na	2.dd\	Do-
2GG/	4	.	.	.	.	.	.	2g\	us-	.	.
.	3	.	.	.	.	.	.	.	.	4cc\	-mi-
=47	=47	=47	=47	=47	=47	=47	=47	=47	=47	=47	=47
!	!	!	!	!	!	!	!	!LO:SIC:l:s=-que:v	!	!	!
2C/	.	.	.	.	.	1.r	.	2.e\	-quae	2cc\	-no
2F\	6	.	.	.	.	.	.	.	.	2r	.
.	.	.	.	.	.	.	.	4d\	ad	.	.
2G\	n	.	.	.	.	.	.	2d\	no-	2r	.
=48	=48	=48	=48	=48	=48	=48-	=48-	=48	=48	=48-	=48-
!	!	!	!	!	!	!	!	!LO:TX:a:t=P:w źródle 3 nuty (2c) mają caudy na środku:problem	!	!	!
!	!	!	!	!	!	!	!	!	!	!LO:N:vis=00	!
2A\	3	.	.	.	.	2r	.	(<2c/	-cte(m)	00.r	.
!	!	!	!	!	!	!LO:SIC:o=solo:v:t='solo' dopisane innym atramentem	!	!	!	!	!
4G\	.	.	.	.	.	2c\	Qui-	2c/)	ſpe-	.	.
4F\	.	.	.	.	.	.	.	.	.	.	.
2E\	.	.	.	.	.	2c\	-a	2c/	-ret	.	.
!	!	!	!	!	!	!LO:LB:g=original	!	!	!	!	!
=49	=49	=49	=49	=49	=49	=49	=49	=49	=49	=49	=49
!	!	!LO:N:vis=00	!LO:N:vis=00	!LO:N:vis=0	!	!	!	!	!	!	!
2F\	.	00.r	00.r	0.r	.	2c\	a-	2.a\	I-	.	.
!LO:LB:g=original	!	!	!	!	!	!	!	!	!	!	!
2A\	.	.	.	.	.	2c\	-pud	.	.	.	.
.	.	.	.	.	.	.	.	4g\	-sra-	.	.
2B-\	.	.	.	.	.	4.B-\	Do-	4f\	-el	.	.
.	.	.	.	.	.	.	.	4g\	in	.	.
.	.	.	.	.	.	8A\	-mi-	.	.	.	.
=50	=50	=50	=50	=50	=50	=50	=50	=50	=50	=50	=50
2c\	.	.	.	.	.	2.G/	-num	2.e\	Do-	.	.
2C#X/	6	.	.	.	.	.	.	.	.	.	.
.	.	.	.	.	.	4e\	Mi-	4e\	-mi-	.	.
2AA/	#	.	.	.	.	4e\	-ſe-	2e\	-no	.	.
.	.	.	.	.	.	4e\	-ri-	.	.	.	.
=51	=51	=51	=51	=51-	=51-	=51	=51	=51	=51	=51	=51
!	!	!	!	!	!	!	!	!LO:N:vis=00	!	!	!
2D\	n	.	.	2r	.	2.f\	-cor-	00.r	.	.	.
2F\	.	.	.	2r	.	.	.	.	.	.	.
.	.	.	.	.	.	4f\	-di-	.	.	.	.
2A\	#	.	.	2A\	Et	2c#X\	-a	.	.	.	.
=52	=52	=52	=52	=52	=52	=52	=52	=52	=52	=52	=52
!	!	!	!	!	!	!	!	!	!	!LO:N:vis=00	!
2B-\	n3_	.	.	2B-\	Ip-	2d\	et	.	.	00.r	.
2A\	.	.	.	4B-\	-ſe	2.d\	co-	.	.	.	.
.	.	.	.	4A\	re-	.	.	.	.	.	.
2G\	6	.	.	4G\	-di-	.	.	.	.	.	.
.	.	.	.	4G\	-met	4e\	-pi-	.	.	.	.
=53	=53	=53	=53	=53	=53	=53	=53	=53	=53	=53	=53
!	!	!LO:N:vis=00	!LO:N:vis=00	!	!	!	!	!	!	!	!
2A\	.	00.r	00.r	2.A\	I-	2c#X\	-o-	.	.	.	.
2G\	.	.	.	.	.	2c#\	-sa	.	.	.	.
.	.	.	.	4G\	-ſra-	.	.	.	.	.	.
2F\	5	.	.	4F\	-el	4cn\	a-	.	.	.	.
.	.	.	.	4F\	ex	4d\	-pud	.	.	.	.
=54	=54	=54	=54	=54	=54	=54	=54	=54	=54	=54	=54
2G\	.	.	.	2G\	Om-	2B-\	e-	.	.	.	.
2F\	.	.	.	4G\	-ni-	4B-/	-um	.	.	.	.
.	.	.	.	4F\	-bu(s)	4A/	Re-	.	.	.	.
!	!	!	!	!	!	!LO:LB:g=original	!	!	!	!	!
2E\	.	.	.	2E\	i-	4.G/	-demp-	.	.	.	.
.	.	.	.	.	.	8F/	-ti-	.	.	.	.
=55	=55	=55	=55	=55	=55	=55	=55	=55	=55	=55	=55
!	!	!	!	!	!	!	!	!LO:N:vis=00	!	!	!
2F\	.	.	.	2.F\	-ni-	2F/	-o	00.r	.	.	.
2E\	6\	.	.	.	.	2r	.	.	.	.	.
.	.	.	.	4E\	-qui-	.	.	.	.	.	.
2D\	n	.	.	2D\	-ta-	2r	.	.	.	.	.
=56	=56	=56	=56	=56	=56	=56-	=56-	=56	=56	=56	=56
!	!	!	!	!	!	!LO:N:vis=0	!	!	!	!LO:N:vis=0	!
2G\	6 5	.	.	4G\	-ti-	0.r	.	.	.	0.r	.
.	.	.	.	4E\	-bu(s)	.	.	.	.	.	.
2A\	.	.	.	(>2A\	e-	.	.	.	.	.	.
!	!	!	!	!LO:LB:g=original	!	!	!	!	!	!	!
!	!	!	!	!LO:TX:a:t=P:w źródle brak zakończenia łuku:problem	!	!	!	!	!	!	!
2AA/	x 4	.	.	2AA/)	.	.	.	.	.	.	.
.	# 3	.	.	.	.	.	.	.	.	.	.
=57	=57	=57	=57	=57	=57	=57	=57	=57	=57	=57	=57
!	!	!LO:N:vis=0	!LO:N:vis=0	!	!	!	!	!	!	!	!
2D/	.	0.r	0.r	2D/	-ius	.	.	.	.	.	.
2GG/	.	.	.	2r	.	.	.	.	.	.	.
2AA/	.	.	.	2r	.	.	.	.	.	.	.
!LO:LB:g=original	!	!	!	!	!	!	!	!	!	!	!
=58	=58	=58	=58	=58-	=58-	=58	=58	=58	=58	=58	=58
!	!	!	!	!LO:TX:a:Bi:t=a	!	!	!	!	!	!	!
1.DD	.	.	.	1.r	.	1.r	.	.	.	1.r	.
!	!	!LO:TX:a:t=P:ozdobna podwójna kreska taktowa &colon;||&colon;:problem	!	!	!	!LO:TX:a:t=P:ozdobna podwójna kreska taktowa &colon;||&colon;:problem	!	!	!	!	!
=59||	=59||	=59||	=59	=59||	=59||	=59||	=59||	=59||	=59||	=59	=59
*M4/4	*	*M2/2	*M4/4	*M2/2	*	*M2/2	*	*M2/2	*	*M4/4	*
*met(c)	*	*met(c|)	*met(c)	*met(c|)	*	*met(c|)	*	*met(c|)	*	*met(c)	*
!LO:TX:a:t=P:w źródle metrum M4/4:problem	!	!	!LO:TX:a:t=P:w źródle metrum M4/4:problem	!	!	!	!	!	!	!LO:TX:a:t=P:w źródle metrum M4/4:problem	!
!LO:TX:b:Bi:t=Gloria	!	!LO:TX:b:Bi:t=Gloria	!LO:TX:b:Bi:t=Gloria	!	!	!	!	!	!	!	!
!LO:TX:a:Bi:t=Graviſsime	!	!	!	!LO:TX:b:Bi:t=Grave	!	!LO:TX:a:Bi:t=Graviſsime	!	!LO:TX:a:Bi:t=Graviſsime	!	!	!
[>2D\	4 2	00r	00r	4D/	Glo-	4.A\	Glo-	4f\	Glo-	4.dd\	Glo-
.	.	.	.	8D/	-ri-	.	.	8f\	-ri-	.	.
.	.	.	.	8D/	-a	16A\	-ri-	8f\	-a	16dd\	-ri-
.	.	.	.	.	.	16A\	-a	.	.	16dd\	-a
2D\]	.	.	.	4D/	Pa-	4c#X\	Pa-	8g\	Pa-	4ee\	Pa-
.	.	.	.	.	.	.	.	8g\	-tri	.	.
!	!	!	!	!	!	!	!	!LO:LB:g=original	!	!	!
.	.	.	.	8D/	-tri	8c#\	-tri	4g\	et	8ee\	-tri
.	.	.	.	8D/	et	8c#\	et	.	.	8ee\	et
=60	=60	=60	=60	=60	=60	=60	=60	=60	=60	=60	=60
2D\	7 3	.	.	8D/	Fi-	8d\	fi-	8a\	fi-	8ff\	Fi-
.	# x	.	.	16D/	-li-	16d\	-li-	16a\	-li-	16ff\	-li-
.	.	.	.	16D/	-o	16d\	-o	16a\	-o	16ff\	-o
!	!	!	!	!	!	!	!	!	!	!LO:LB:g=original	!
.	.	.	.	8D/	et	8d\	et	8f\	et	8ff\	et
.	.	.	.	8D/	ſpi-	8d\	ſpi-	8f\	ſpi-	8ff\	ſpi-
2BBn/	.	.	.	8.BBn/	-ri-	8.d\	-ri-	8.g#X\	-ri-	8.ee\	-ri-
.	.	.	.	16BB/	-tu-	16d\	-tu-	16g#\	-tu-	16ee\	-tu-
.	.	.	.	4BB/	-i	4d\	-i	4g#\	-i	4ee\	-i
!	!	!	!	!	!	!LO:LB:g=original	!	!	!	!	!
=61	=61	=61	=61	=61	=61	=61	=61	=61	=61	=61	=61
2AA/	.	.	.	8AA/	ſan-	8c#X\	ſan-	8a\	ſan-	8ee\	ſan-
.	.	.	.	8AA/	-cto	8c#,<\	-cto	8a,<\	-cto	8ee,<\	-cto
.	.	.	.	4r	.	8c#\	ſi-	8a\	ſi-	8ee\	ſi-
.	.	.	.	.	.	8c#\	-cut	8a\	-cut	8ee\	-cut
2C#X/	6 5	.	.	2r	.	8A\	e-	8g\	e-	8ee\	e-
.	.	.	.	.	.	8A\	-rat	8g\	-rat	8ee\	-rat
.	.	.	.	.	.	8A\	in	8g\	in	8ee\	in
.	.	.	.	.	.	8A\	Prin-	8g\	prin-	8ee\	prin-
!	!	!	!	!LO:LB:g=original	!	!	!	!	!	!	!
=62	=62	=62	=62	=62	=62	=62	=62	=62	=62	=62	=62
2D/	5 n3	.	.	4r	.	8.A\	-ci-	8.f\	-ci-	8.dd\	-ci-
.	.	.	.	.	.	16A\	-pi-	16f\	-pi-	16dd\	-pi-
.	.	.	.	8r	.	8B-\	-o	8f\	-o	8dd\	-o
.	.	.	.	8D\	et	8B-\	et	8b-\	et	8dd\	et
!	!	!	!	!	!	!	!	!LO:LB:g=original	!	!	!
2E\	x 6	.	.	4.E\	nunc	4.c\	nunc	4.g\	nunc	4.b-\	nunc
.	6\ 5\	.	.	8E\	et	8c\	et	8g\	et	8b-\	et
=63	=63	=63	=63	=63	=63	=63	=63	=63	=63	=63	=63
2F\	9	1r	1r	8F\	ſem-	8c\	ſem-	8a\	ſem-	8a\	ſem-
.	8	.	.	8F\	-per	8c\	-per	8a\	-per	8a\	-per
.	.	.	.	8F\	et	8c\	et	8f\	et	8a\	et
.	.	.	.	8F\	in	8A\	in	8f\	in	8a\	in
!	!	!	!	!	!	!	!	!	!	!LO:LB:g=original	!
2D/	x 3	.	.	8D/	ſae-	8G/	ſae-	8f\	ſae-	8bn\	ſae-
.	6\ 4	.	.	16D/	-cu-	16G/	-cu-	16f\	-cu-	16b\	-cu-
.	.	.	.	16D/	-la	16G/	-la	16f\	-la	16b\	-la
!	!	!	!	!	!	!LO:LB:g=original	!	!	!	!	!
.	.	.	.	8D/	ſae-	8G/	ſae-	8f\	ſae-	8b\	ſae-
.	.	.	.	8D/	-cu-	8G/	-cu-	8f\	-cu-	8b\	-cu-
=64	=64	=64-	=64-	=64	=64	=64	=64	=64	=64	=64	=64
2C/	.	2rg	2r	2C/	-lo-	2G/	-lo-	(>4f\	-lo-	2cc\	-lo-
.	.	.	.	.	.	.	.	4e\)	.	.	.
!LO:TX:a:t=P:mixed beam:problem	!	!	!	!	!	!	!	!	!	!	!
8FF/L	.	8r	8r	8FF/	-rum	8A\	-rum	8f,<\	-rum	8cc\	-ru(m)
!	!	!	!LO:TX:b:Bi:t=amen	!	!	!	!	!	!	!	!
8F\J	.	8a/	4cc\	8F\	A-	(>16A\LL	A-	8f\	A-	4cc\	A-
.	.	.	.	.	.	16B-\JJ)	.	.	.	.	.
!	!	!LO:LB:g=original	!	!	!	!	!	!	!	!	!
8E\L	6	8g/L	.	8E\L	.	8c,<\	-men	(>8g\L	.	.	.
16F\L	.	16a/L	8cc\	16F\L	.	8c\	A-	16a\L)	.	8cc\	-men
16E\JJ	.	16g/JJ	.	16E\JJ	.	.	.	16g\JJ	.	.	.
=65	=65	=65	=65	=65	=65	=65	=65	=65	=65	=65	=65
8D\L	6	8f/L	8b-/L	8D\L	.	8d\L	.	8f\L	.	8b-\L	A-
8C\	6	8e/	8a/J	8C\	.	8e\	.	8e\	.	8a\J	.
8D\	6	8f/	8b-/L	8D\	.	8d\	.	8f\	.	8b-\L	.
8E\J	6	8g/J	16cc/L	8E\J	.	8c\J	.	8g\J	.	16cc\L	.
.	5	.	16b-/JJ	.	.	.	.	.	.	16b-\JJ	.
8F\L	.	8a/L	16a/LL	8F\L	.	8c\	.	8a\	.	16a\LL	.
.	.	.	16b-/J	.	.	.	.	.	.	16b-\JJ	.
8E\	.	8g/	[<8cc/J	8E\	.	8c\	-men	8g,<\	-men	8cc\	-men
8D\	6	8.f/	8cc/L]	8D\	.	4d\	A-	4f\	A-	(>8cc\L	A-
.	7	.	.	.	.	.	.	.	.	.	.
8G\J	n	.	8bn/J	8G\J	.	.	.	.	.	8bn\J)	.
.	.	16f/Jk	.	.	.	.	.	.	.	.	.
!LO:LB:g=original	!	!	!	!LO:LB:g=original	!	!	!	!LO:LB:g=original	!	!	!
=66	=66	=66	=66	=66	=66	=66	=66	=66	=66	=66	=66
8C/L	.	8e/L	8cc\L	8C/	-men	8e\	-men	8e,<\	-men	8cc\	-men
16C/L	.	16g/L	16ee\L	8rF	.	8c\L	A-	16g\LL	A-	16ee\LL	A-
16D/JJ	.	16f/JJ	16dd\JJ	.	.	.	.	16f\JJ	.	16dd\JJ	.
!	!	!	!LO:LB:g=original	!	!	!	!	!	!	!	!
8E\L	.	8e/L	8cc\L	4rF	.	8G\	.	8e\L	.	8cc\L	.
8F\J	.	8a/J	8ff\J	.	.	8A\J	.	8a\J	.	8ff\J	.
!LO:TX:a:t=P:mixed beam:problem	!	!	!	!	!	!	!	!	!	!	!
!	!	!	!LO:SIC:s=8dd:v	!	!	!	!	!	!	!	!
8G\L	- x	8g/L	8ee\L	8rF	.	8B-\	-men	8g\	-men	8dd\	-men
8G\	6 x	16d/L	8gg\	8G\L	A-	4B-\	A-	16d\LL	A-	8gg\L	A-
.	.	16e/JJ	.	.	.	.	.	16e\JJ	.	.	.
8D/	6 5	8f/L	8ff\	8D\	.	.	.	8f\L	.	8ff\	.
8E/J	.	8g/J	8ee\J	8E\J	.	16A/LL	.	8g\J	.	8ee\J	.
.	.	.	.	.	.	16G/JJ	.	.	.	.	.
!	!	!	!	!	!	!	!	!	!	!LO:LB:g=original	!
=67	=67	=67	=67	=67	=67	=67	=67	=67	=67	=67	=67
8F\L	.	8a/L	8ff\L	8F\	-men	8G/	-men	8a\L	.	8ee\L	.
!	!	!	!	!	!	!LO:SIC:custos c:v	!	!	!	!	!
!	!	!	!	!	!	!LO:LB:g=original	!	!	!	!	!
!	!	!	!	!	!	!LO:TX:a:t=P:problem:pominięty fragment; brak pauz	!	!	!	!	!
16F\L	.	16a/L	8ff\J	8rF	.	8ryy	.	16a\L	.	8ff\	.
16G\JJ	.	16g/JJ	.	.	.	.	.	16g\JJ	.	.	.
8A\L	.	16f/LL	8cc\L	4r	.	4ryy	.	16f\LL	.	8cc\	.
.	.	16a/	.	.	.	.	.	16a\	.	.	.
8B-\J	.	16g/	8dd\J	.	.	.	.	16g\	.	8dd\J	.
.	.	16f/JJ	.	.	.	.	.	16f\JJ	.	.	.
8c\L	.	8e/L	8ee\	8rA	.	8ryy	.	8e,<\	-men	8ee\	-men
8c\	.	8g/J	4ee\	8c\L	a-	(>8c\L	A-	(>8g\	A-	4ee\	A-
8G\	n	8b-/L	.	8G\	.	8B-\	.	8b-\L)	.	.	.
8A\J	6	16a/L	16ff\LL	8A\J	.	8c\J)	.	16a\L	.	16ff\LL	.
.	5	16g/JJ	16ee\JJ	.	.	.	.	16g\JJ	.	16ee\JJ	.
=68	=68	=68	=68	=68	=68	=68	=68	=68	=68	=68	=68
!LO:TX:a:t=P:mixed beam:problem	!	!	!	!	!	!	!	!	!	!	!
8B-\L	.	8f/L	8dd\L	8B-\	-men	8d\	.	8f\	-men	8dd\	.
*	*	*	*	*	*ij	*	*	*	*	*	*
8G\	.	8b-/J	8gg\J	8G\L	a-	8d\	-men	8g\	.	8gg\	.
8D/	6 x	8dd\L	8ff\L	8D\	.	8d\L	A-	8f\	A-	8ff\L	.
.	5 x	.	.	.	.	.	.	.	.	.	.
8E/J	.	8g\J	16ee\L	8E\J	.	8c\J	.	8g\	.	16ee\L	.
.	.	.	16dd\JJ	.	.	.	.	.	.	16dd\JJ	.
!LO:TX:a:t=P:mixed beam:problem	!	!LO:TX:a:t=P:mixed beam:problem	!LO:TX:a:t=P:mixed beam:problem	!	!	!	!	!	!	!	!
8F\L	.	8a/L	8cc/L	8F\	.	8f\	.	4a\	.	8cc\L	.
8BB-\	6 5	16gg\L	16bb-\L	8BB-/	-men	8d\	-men	.	.	16dd\L	.
.	.	16ff\JJ	16aa\JJ	.	.	.	.	.	.	16ee\JJ	.
*	*	*	*	*	*Xij	*	*	*	*	*	*
8C\	.	8ff\L	8gg\L	4C/	A-	4c\	A-	4g\	.	8ff\L	.
8CC/J	4	8ee\J	8ccc\J	.	.	.	.	.	.	8ee\J	.
.	3	.	.	.	.	.	.	.	.	.	.
=69	=69	=69	=69	=69	=69	=69	=69	=69	=69	=69	=69
1FF;;	.	1ff;>	1aa;;	1FF;>	-men	1c;>	-men	1a	-men	1ff	-men
!	!	!	!	!LO:TX:b:Bi:t=Verte Cito	!	!LO:TX:b:Bi:t=Verte Cito 2	!	!	!	!	!
!	!	!	!	!LO:TX:a:t=P:ozdobna kreska końcowa &colon;||&colon;:problem	!	!LO:TX:a:t=P:ozdobna kreska końcowa &colon;||&colon;:problem	!	!LO:TX:a:t=P:ozdobna kreska końcowa &colon;||&colon;:problem	!	!LO:TX:a:t=P:ozdobna kreska końcowa &colon;||&colon;:problem	!
!LO:TX:a:t=P:ozdobna kreska końcowa &colon;||&colon;:problem	!	!LO:TX:a:t=P:ozdobna kreska końcowa &colon;||&colon;:problem	!LO:TX:a:t=P:ozdobna kreska końcowa &colon;||&colon;:problem	!	!	!	!	!	!	!	!
==	==	==	==	==	==	==	==	==	==	==	==
*-	*-	*-	*-	*-	*-	*-	*-	*-	*-	*-	*-
!!title: @{OTL};
!!!RDF**kern: > = above
!!!RDF**kern: < = below
!!!RDF**kern: i = editorial accidental
!!!EED: Wojciech Jakubiak-Danek
!!!EST: 2020-11-08
!!!URL-scan: http://bc.bdsandomierz.pl/dlibra/publication/1796/edition/1777/content
!!!ONB-nifc: UWAGA: części Psalmi: De profundis clamavi, Memento Domine David
!!!ENC: Andrzej Borzym
!!!END: 2020-05-06
